X:1
T:Title
%%score ( 1 2 ) { ( 3 5 ) | 4 }
L:1/8
M:4/4
K:Ab
V:1 treble nm="Bright Piano"
V:2 treble 
V:3 bass nm="Bright Piano"
V:5 bass 
V:4 bass 
V:1
 z4 z2[Q:1/4=100] [CE]2 | [CE]2 [Ec]2 [Ec]2 [DB]2 | [CA]6 E2 | z4 z2 c2 | [GB]6 [EB]2 | %5
 [Ec]2 [Ae]2 [Be]2 [Ac]2 | [Gc]2 A2 [FA]2 [DF]2 | z4 c2 B2 |[M:3/4] [CA]6 |] %9
V:2
 x8 | x8 | x8 | E2 [Ed]2 [Ed]2 EF | x8 | x8 | x8 | [CE]2 [Ec]2 E3 D |[M:3/4] x6 |] %9
V:3
 z4 z2 A,2 | z2 A,2 z4 | E,6 G,2 | A,2 B,2 B,2[K:treble] C=D | E6 G,2 | A,2 C2 E2 A,2 | %6
 C2 E2 D2[K:bass] A,2 | z2 A,2 z4 |[M:3/4] A,6 |] %9
V:4
 z4 z2 A,,2 | A,,4 E,2 E,2 | A,,6 E,2 | F,2 G,2 A,2 A,2 | E,6 E,2 | A,,2 A,2 G,2 F,2 | %6
 E,2 C,2 D,2 D,2 | A,,4 E,2 E,2 |[M:3/4] A,,6 |] %9
V:5
 x8 | A,2 z C, A,2 G,2 | x8 | x6[K:treble] x2 | x8 | x8 | x6[K:bass] x2 | A,2 z C, A,2 G,2 | %8
[M:3/4] x6 |] %9

